src/icons/IconCalendar/IconCalendar_size_xs.svg

<svg viewBox="0 0 12 12" xmlns="http://www.w3.org/2000/svg">
  <path
    fill-rule="evenodd"
    clip-rule="evenodd"
    d="M3.5 1C3.22386 1 3 1.22386 3 1.5V2H2C1.44772 2 1 2.44772 1 3V10C1 10.5523 1.44772 11 2 11H10C10.5523 11 11 10.5523 11 10V3C11 2.44772 10.5523 2 10 2H9V1.5C9 1.22386 8.77614 1 8.5 1C8.22386 1 8 1.22386 8 1.5V2H4V1.5C4 1.22386 3.77614 1 3.5 1ZM10 4H2L2 10H10V4Z"
  />
</svg>

<svg viewBox="0 0 12 12" xmlns="http://www.w3.org/2000/svg">
  <path
    fill-rule="evenodd"
    clip-rule="evenodd"
    d="M3.5 1a.5.5 0 00-.5.5V2H2a1 1 0 00-1 1v7a1 1 0 001 1h8a1 1 0 001-1V3a1 1 0 00-1-1H9v-.5a.5.5 0 00-1 0V2H4v-.5a.5.5 0 00-.5-.5zM10 4H2v6h8V4z"
  />
</svg>
